; generated by PrusaSlicer 2.9.2 on 2025-12-17 at 01:12:05 UTC


;
;
; 

; external perimeters extrusion width = 0.60mm
; perimeters extrusion width = 0.50mm
; infill extrusion width = 0.50mm
; solid infill extrusion width = 0.50mm
; top infill extrusion width = 0.45mm
; first layer extrusion width = 0.42mm

M73 P0 R6
M73 Q0 S6
M201 X1000 Y1000 Z200 E5000 ; sets maximum accelerations, mm/sec^2
M203 X200 Y200 Z12 E120 ; sets maximum feedrates, mm / sec
M204 S1250 T1250 ; sets acceleration (S) and retract acceleration (R), mm/sec^2
M205 X8.00 Y8.00 Z0.40 E4.50 ; sets the jerk limits, mm/sec
M205 S0 T0 ; sets the minimum extruding and travel feed rate, mm/sec

; printing object xyz-10mm-calibration-cube(3).stl id:0 copy 0
; stop printing object xyz-10mm-calibration-cube(3).stl id:0 copy 0

;TYPE:Custom
M862.3 P "MK3S" ; printer model check
M862.1 P0.4 ; nozzle diameter check
M115 U3.14.1 ; tell printer latest fw version
G90 ; use absolute coordinates
M83 ; extruder relative mode
M104 S240 ; set extruder temp
M140 S85 ; set bed temp
M190 S85 ; wait for bed temp
M109 S240 ; wait for extruder temp
G28 W ; home all without mesh bed level
G80 X120 Y100 W10 H10 ; mesh bed levelling

G1 Z0.2 F720
G1 Y-3 F1000 ; go outside print area
G92 E0
G1 X60 E9 F1000 ; intro line
G1 X100 E12.5 F1000 ; intro line

G92 E0
M221 S95

; Don't change E values below. Excessive value can damage the printer.

M907 E538 ; set extruder motor current
G21 ; set units to millimeters
G90 ; use absolute coordinates
M83 ; use relative distances for extrusion

M900 K0.08 ; Filament gcode LA 1.5
M900 K45 ; Filament gcode LA 1.0




M107
;LAYER_CHANGE
;Z:0.2
;HEIGHT:0.2
G1 E-1 F2100
M73 P1 R6
M73 Q1 S6
G1 Z.4 F720
; printing object xyz-10mm-calibration-cube(3).stl id:0 copy 0
G1 X129.213 Y109.213 F10800
G1 Z.2 F720
G1 E1 F2100
M204 S800
;TYPE:Perimeter
;WIDTH:0.419999
G1 F1060
G1 X120.787 Y109.213 E.26419
G1 X120.787 Y100.787 E.26419
M73 Q2 S6
G1 X129.213 Y100.787 E.26419
M73 P2 R6
G1 X129.213 Y105 E.1321
G1 X129.213 Y109.153 E.13021
M204 S1000
G1 X129.59 Y109.59 F10800
M204 S800
;TYPE:External perimeter
G1 F1060
G1 X120.41 Y109.59 E.28783
G1 X120.41 Y100.41 E.28783
G1 X129.59 Y100.41 E.28783
G1 X129.59 Y105 E.14392
G1 X129.59 Y109.53 E.14203
M204 S1000
;WIPE_START
G1 F8640
M73 Q3 S6
G1 X129.59 Y109.59 E-.01385
G1 X125.319 Y109.59 E-.98615
;WIPE_END
G1 Z.4 F720
G1 X128.268 Y100.957 F10800
G1 Z.2 F720
G1 E1 F2100
M73 P3 R6
M204 S800
;TYPE:Solid infill
;WIDTH:0.425897
G1 F1060
G1 X128.874 Y101.562 E.02727
G1 X128.874 Y102.103 E.01723
G1 X127.897 Y101.126 E.044
G1 X127.355 Y101.126 E.01726
G1 X128.874 Y102.645 E.06841
G1 X128.874 Y103.187 E.01726
G1 X126.813 Y101.126 E.09282
G1 X126.272 Y101.126 E.01723
G1 X128.874 Y103.728 E.11718
G1 X128.874 Y104.27 E.01726
G1 X125.73 Y101.126 E.14159
G1 X125.188 Y101.126 E.01726
G1 X128.874 Y104.812 E.166
G1 X128.874 Y105.353 E.01723
G1 X124.647 Y101.126 E.19036
G1 X124.105 Y101.126 E.01726
G1 X128.874 Y105.895 E.21477
G1 X128.874 Y106.436 E.01723
G1 X123.564 Y101.126 E.23914
G1 X123.022 Y101.126 E.01726
G1 X128.874 Y106.978 E.26355
G1 X128.874 Y107.52 E.01726
G1 X122.48 Y101.126 E.28795
G1 X121.939 Y101.126 E.01723
M73 Q4 S6
G1 X128.874 Y108.061 E.31232
G1 X128.874 Y108.603 E.01726
M73 P4 R6
G1 X121.397 Y101.126 E.33673
G1 X121.126 Y101.126 E.00863
G1 X121.126 Y101.397 E.00863
G1 X128.603 Y108.874 E.33673
G1 X128.061 Y108.874 E.01726
G1 X121.126 Y101.939 E.31232
G1 X121.126 Y102.481 E.01726
G1 X127.519 Y108.874 E.28791
G1 X126.978 Y108.874 E.01723
G1 X121.126 Y103.022 E.26355
G1 X121.126 Y103.564 E.01726
G1 X126.436 Y108.874 E.23914
M73 Q5 S6
G1 X125.895 Y108.874 E.01723
M73 P5 R6
G1 X121.126 Y104.105 E.21477
G1 X121.126 Y104.647 E.01726
G1 X125.353 Y108.874 E.19036
G1 X124.811 Y108.874 E.01726
G1 X121.126 Y105.189 E.16595
G1 X121.126 Y105.73 E.01723
G1 X124.27 Y108.874 E.14159
G1 X123.728 Y108.874 E.01726
G1 X121.126 Y106.272 E.11718
G1 X121.126 Y106.813 E.01723
G1 X123.187 Y108.874 E.09282
G1 X122.645 Y108.874 E.01726
G1 X121.126 Y107.355 E.06841
G1 X121.126 Y107.897 E.01726
G1 X122.103 Y108.874 E.044
G1 X121.562 Y108.874 E.01723
G1 X120.957 Y108.269 E.02725
M204 S1000
;LAYER_CHANGE
;Z:0.5
;HEIGHT:0.3
;BEFORE_LAYER_CHANGE
G92 E0.0
;0.5


;WIPE_START
G1 F8640
G1 X121.562 Y108.874 E-.19756
G1 X122.103 Y108.874 E-.12492
G1 X121.126 Y107.897 E-.31904
G1 X121.126 Y107.355 E-.12515
G1 X121.841 Y108.069 E-.23333
;WIPE_END
G1 Z.5 F720
;AFTER_LAYER_CHANGE
;0.5
M140 S90 ; set bed temperature
G1 Z.7
G1 X129.214 Y109.214 F10800
G1 Z.5 F720
G1 E1 F2100
M204 S800
;TYPE:Perimeter
;WIDTH:0.5
G1 F913
G1 X120.786 Y109.214 E.45792
G1 X120.786 Y100.786 E.45792
G1 X129.214 Y100.786 E.45792
M73 P6 R6
M73 Q6 S6
G1 X129.214 Y109.154 E.45466
M204 S1000
G1 X129.7 Y109.7 F10800
M204 S800
;TYPE:External perimeter
;WIDTH:0.6
G1 F913
G1 X120.3 Y109.7 E.62797
G1 X120.3 Y100.3 E.62797
G1 X129.7 Y100.3 E.62797
G1 X129.7 Y109.64 E.62396
M204 S1000
;WIPE_START
G1 F8640
M73 Q7 S6
G1 X129.7 Y109.7 E-.01385
G1 X125.429 Y109.7 E-.98615
;WIPE_END
G1 Z.7 F720
G1 X121.296 Y101.213 F10800
M73 P7 R6
G1 Z.5 F720
G1 E1 F2100
;TYPE:Solid infill
;WIDTH:0.605691
G1 F913
G1 X121.248 Y101.165 E.00458
G1 X121.183 Y101.183 E.00455
G1 X121.165 Y101.248 E.00455
G1 X121.213 Y101.296 E.00458
G1 X121.278 Y101.278 E.00455
;WIDTH:0.5
G1 X121.178 Y101.974 E.0382
G1 X121.974 Y101.178 E.06116
G1 X122.59 Y101.178 E.03347
G1 X121.178 Y102.59 E.1085
G1 X121.178 Y103.206 E.03347
G1 X123.206 Y101.178 E.15583
G1 X123.822 Y101.178 E.03347
G1 X121.178 Y103.822 E.20316
G1 X121.178 Y104.438 E.03347
G1 X124.438 Y101.178 E.25049
G1 X125.054 Y101.178 E.03347
G1 X121.178 Y105.054 E.29782
G1 X121.178 Y105.671 E.03352
G1 X125.671 Y101.178 E.34523
G1 X126.287 Y101.178 E.03347
M73 P7 R5
M73 Q7 S5
G1 X121.178 Y106.287 E.39257
G1 X121.178 Y106.903 E.03347
G1 X126.903 Y101.178 E.4399
G1 X127.519 Y101.178 E.03347
G1 X121.178 Y107.519 E.48723
G1 X121.178 Y108.135 E.03347
M73 P8 R5
M73 Q8 S5
G1 X128.135 Y101.178 E.53456
G1 X128.751 Y101.178 E.03347
G1 X121.178 Y108.751 E.5819
G1 X121.23 Y108.87 E.00706
;WIDTH:0.45219
G1 X121.282 Y108.99 E.00633
;WIDTH:0.404381
G1 X121.027 Y108.973 E.01084
;WIDTH:0.5
G1 X121.722 Y108.822 E.03864
G1 X128.822 Y101.722 E.54555
G1 X128.822 Y102.338 E.03347
G1 X122.338 Y108.822 E.49822
G1 X122.954 Y108.822 E.03347
G1 X128.822 Y102.954 E.45089
G1 X128.822 Y103.57 E.03347
M73 Q9 S5
G1 X123.57 Y108.822 E.40355
G1 X124.186 Y108.822 E.03347
M73 P9 R5
G1 X128.822 Y104.186 E.35622
G1 X128.822 Y104.803 E.03352
G1 X124.803 Y108.822 E.30881
G1 X125.419 Y108.822 E.03347
G1 X128.822 Y105.419 E.26148
G1 X128.822 Y106.035 E.03347
G1 X126.035 Y108.822 E.21415
G1 X126.651 Y108.822 E.03347
G1 X128.822 Y106.651 E.16682
G1 X128.822 Y108.822 E.11796
G1 X127.267 Y108.822 E.08449
G1 X128.668 Y107.421 E.10765
G1 X128.424 Y108.351 F10800
;WIDTH:0.539985
G1 F913
G1 X128.382 Y108.309 E.00352
G1 X128.325 Y108.325 E.00351
G1 X128.309 Y108.382 E.00351
G1 X128.351 Y108.424 E.00352
G1 X128.409 Y108.409 E.00355
;LAYER_CHANGE
;Z:0.8
;HEIGHT:0.3
;BEFORE_LAYER_CHANGE
G92 E0.0
;0.8


;WIPE_START
G1 F8640
G1 X128.351 Y108.424 E-.01383
G1 X128.309 Y108.382 E-.01371
G1 X128.325 Y108.325 E-.01367
G1 X128.382 Y108.309 E-.01367
G1 X128.424 Y108.351 E-.01371
;WIPE_END
G1 E-.93141 F2100
G1 Z.8 F720
;AFTER_LAYER_CHANGE
;0.8
G1 Z1
G1 X129.214 Y109.214 F10800
G1 Z.8 F720
G1 E1 F2100
M204 S800
;TYPE:Perimeter
;WIDTH:0.5
G1 F927
G1 X120.786 Y109.214 E.45792
G1 X120.786 Y100.786 E.45792
G1 X129.214 Y100.786 E.45792
M73 P10 R5
M73 Q10 S5
G1 X129.214 Y109.154 E.45466
M204 S1000
G1 X129.7 Y109.7 F10800
M204 S800
;TYPE:External perimeter
;WIDTH:0.6
G1 F927
G1 X120.3 Y109.7 E.62797
G1 X120.3 Y100.3 E.62797
G1 X129.7 Y100.3 E.62797
G1 X129.7 Y109.64 E.62396
M204 S1000
;WIPE_START
G1 F8640
M73 Q11 S5
G1 X129.7 Y109.7 E-.01385
G1 X125.429 Y109.7 E-.98615
;WIPE_END
G1 Z1 F720
G1 X121.213 Y108.704 F10800
G1 Z.8 F720
M73 P11 R5
G1 E1 F2100
;TYPE:Solid infill
;WIDTH:0.605691
G1 F927
G1 X121.165 Y108.752 E.00458
G1 X121.183 Y108.817 E.00455
G1 X121.248 Y108.835 E.00455
G1 X121.296 Y108.787 E.00458
G1 X121.278 Y108.722 E.00455
;WIDTH:0.5
G1 X121.178 Y108.026 E.0382
G1 X121.974 Y108.822 E.06116
G1 X122.59 Y108.822 E.03347
G1 X121.178 Y107.41 E.1085
G1 X121.178 Y106.794 E.03347
G1 X123.206 Y108.822 E.15583
G1 X123.822 Y108.822 E.03347
G1 X121.178 Y106.178 E.20316
G1 X121.178 Y105.562 E.03347
G1 X124.438 Y108.822 E.25049
G1 X125.054 Y108.822 E.03347
G1 X121.178 Y104.946 E.29782
G1 X121.178 Y104.329 E.03352
G1 X125.671 Y108.822 E.34523
G1 X126.287 Y108.822 E.03347
G1 X121.178 Y103.713 E.39257
G1 X121.178 Y103.097 E.03347
G1 X126.903 Y108.822 E.4399
G1 X127.519 Y108.822 E.03347
G1 X121.178 Y102.481 E.48723
G1 X121.178 Y101.865 E.03347
M73 P12 R5
M73 Q12 S5
G1 X128.135 Y108.822 E.53456
G1 X128.973 Y108.973 E.04626
;WIDTH:0.404381
G1 X128.99 Y108.718 E.01084
;WIDTH:0.45219
G1 X128.87 Y108.77 E.00633
;WIDTH:0.5
G1 X128.751 Y108.822 E.00706
G1 X121.178 Y101.249 E.5819
G1 X121.722 Y101.178 E.02981
G1 X128.822 Y108.278 E.54555
G1 X128.822 Y107.662 E.03347
G1 X122.338 Y101.178 E.49822
G1 X122.954 Y101.178 E.03347
G1 X128.822 Y107.046 E.45089
G1 X128.822 Y106.43 E.03347
G1 X123.57 Y101.178 E.40355
G1 X124.186 Y101.178 E.03347
M73 P13 R5
M73 Q13 S5
G1 X128.822 Y105.814 E.35622
G1 X128.822 Y105.197 E.03352
G1 X124.803 Y101.178 E.30881
G1 X125.419 Y101.178 E.03347
G1 X128.822 Y104.581 E.26148
G1 X128.822 Y103.965 E.03347
G1 X126.035 Y101.178 E.21415
G1 X126.651 Y101.178 E.03347
G1 X128.822 Y103.349 E.16682
;WIPE_START
G1 F8640
G1 X126.651 Y101.178 E-.70893
G1 X126.035 Y101.178 E-.14224
G1 X126.491 Y101.634 E-.14883
;WIPE_END
G1 Z1 F720
G1 X127.421 Y101.332 F10800
G1 Z.8 F720
G1 E1 F2100
G1 F927
G1 X128.822 Y102.733 E.10765
G1 X128.822 Y101.178 E.08449
G1 X127.267 Y101.178 E.08449
;WIPE_START
G1 F8640
G1 X128.822 Y101.178 E-.35905
G1 X128.822 Y102.733 E-.35905
G1 X127.959 Y101.87 E-.2819
;WIPE_END
G1 Z1 F720
G1 X128.351 Y101.576 F10800
G1 Z.8 F720
G1 E1 F2100
;WIDTH:0.539985
G1 F927
G1 X128.309 Y101.618 E.00352
G1 X128.325 Y101.675 E.00351
G1 X128.382 Y101.691 E.00351
G1 X128.424 Y101.649 E.00352
G1 X128.409 Y101.591 E.00355
M106 S63.75
;LAYER_CHANGE
;Z:1.1
;HEIGHT:0.3
;BEFORE_LAYER_CHANGE
G92 E0.0
;1.1


;WIPE_START
G1 F8640
G1 X128.424 Y101.649 E-.01383
G1 X128.382 Y101.691 E-.01371
G1 X128.325 Y101.675 E-.01367
G1 X128.309 Y101.618 E-.01367
G1 X128.351 Y101.576 E-.01371
;WIPE_END
G1 E-.93141 F2100
G1 Z1.1 F720
;AFTER_LAYER_CHANGE
;1.1
G1 Z1.3
G1 X129.214 Y109.214 F10800
G1 Z1.1 F720
G1 E1 F2100
M204 S800
;TYPE:Perimeter
;WIDTH:0.5
G1 F900
G1 X120.786 Y109.214 E.45792
G1 X120.786 Y100.786 E.45792
M73 P14 R5
M73 Q14 S5
G1 X129.214 Y100.786 E.45792
G1 X129.214 Y109.154 E.45466
M204 S1000
G1 X129.7 Y109.7 F10800
M204 S800
;TYPE:External perimeter
;WIDTH:0.6
G1 F900
G1 X120.3 Y109.7 E.62797
G1 X120.3 Y100.3 E.62797
G1 X129.7 Y100.3 E.62797
G1 X129.7 Y109.64 E.62396
M73 Q15 S5
M204 S1000
;WIPE_START
G1 F8640
M73 P15 R5
G1 X129.7 Y109.7 E-.01385
G1 X125.429 Y109.7 E-.98615
;WIPE_END
G1 Z1.3 F720
G1 X126.322 Y108.822 F10800
G1 Z1.1 F720
G1 E1 F2100
;TYPE:Internal infill
;WIDTH:0.5
G1 F900
G1 X128.822 Y108.822 E.13583
G1 X121.178 Y101.178 E.58735
G1 X121.178 Y108.822 E.41532
G1 X128.822 Y101.178 E.58735
G1 X128.822 Y103.678 E.13583
M106 S127.5
;LAYER_CHANGE
;Z:1.4
;HEIGHT:0.3
;BEFORE_LAYER_CHANGE
G92 E0.0
;1.4


;WIPE_START
G1 F8640
G1 X128.822 Y101.178 E-.57726
G1 X127.527 Y102.473 E-.42274
;WIPE_END
G1 Z1.4 F720
;AFTER_LAYER_CHANGE
;1.4
G1 Z1.6
G1 X129.214 Y109.214 F10800
G1 Z1.4 F720
G1 E1 F2100
M204 S800
;TYPE:Perimeter
;WIDTH:0.5
G1 F900
G1 X120.786 Y109.214 E.45792
G1 X120.786 Y100.786 E.45792
M73 P16 R5
M73 Q16 S5
G1 X129.214 Y100.786 E.45792
G1 X129.214 Y109.154 E.45466
M204 S1000
G1 X129.7 Y109.7 F10800
M204 S800
;TYPE:External perimeter
;WIDTH:0.6
G1 F900
G1 X120.3 Y109.7 E.62797
G1 X120.3 Y100.3 E.62797
G1 X129.7 Y100.3 E.62797
G1 X129.7 Y109.64 E.62396
M73 Q17 S5
M204 S1000
;WIPE_START
G1 F8640
M73 P17 R5
G1 X129.7 Y109.7 E-.01385
G1 X125.429 Y109.7 E-.98615
;WIPE_END
G1 Z1.6 F720
G1 X126.322 Y108.822 F10800
G1 Z1.4 F720
G1 E1 F2100
;TYPE:Internal infill
;WIDTH:0.5
G1 F900
G1 X128.822 Y108.822 E.13583
G1 X121.178 Y101.178 E.58735
G1 X121.178 Y108.822 E.41532
G1 X128.822 Y101.178 E.58735
G1 X128.822 Y103.678 E.13583
;LAYER_CHANGE
;Z:1.7
;HEIGHT:0.3
;BEFORE_LAYER_CHANGE
G92 E0.0
;1.7


;WIPE_START
G1 F8640
G1 X128.822 Y101.178 E-.57726
G1 X127.527 Y102.473 E-.42274
;WIPE_END
G1 Z1.7 F720
;AFTER_LAYER_CHANGE
;1.7
G1 Z1.9
G1 X129.214 Y109.214 F10800
G1 Z1.7 F720
M73 Q18 S5
G1 E1 F2100
M204 S800
;TYPE:Perimeter
;WIDTH:0.5
G1 F900
G1 X120.786 Y109.214 E.45792
G1 X120.786 Y100.786 E.45792
M73 P18 R5
G1 X129.214 Y100.786 E.45792
G1 X129.214 Y109.154 E.45466
M204 S1000
G1 X129.7 Y109.7 F10800
M204 S800
;TYPE:External perimeter
;WIDTH:0.6
G1 F900
G1 X120.3 Y109.7 E.62797
G1 X120.3 Y100.3 E.62797
G1 X129.7 Y100.3 E.62797
G1 X129.7 Y109.64 E.62396
M73 P19 R5
M73 Q19 S5
M204 S1000
;WIPE_START
G1 F8640
G1 X129.7 Y109.7 E-.01385
G1 X125.429 Y109.7 E-.98615
;WIPE_END
G1 Z1.9 F720
G1 X126.322 Y108.822 F10800
G1 Z1.7 F720
G1 E1 F2100
;TYPE:Internal infill
;WIDTH:0.5
G1 F900
G1 X128.822 Y108.822 E.13583
G1 X121.178 Y101.178 E.58735
G1 X121.178 Y108.822 E.41532
G1 X128.822 Y101.178 E.58735
G1 X128.822 Y103.678 E.13583
;LAYER_CHANGE
;Z:2
;HEIGHT:0.3
;BEFORE_LAYER_CHANGE
G92 E0.0
;2


;WIPE_START
G1 F8640
G1 X128.822 Y101.178 E-.57726
G1 X127.527 Y102.473 E-.42274
;WIPE_END
G1 Z2 F720
;AFTER_LAYER_CHANGE
;2
G1 Z2.2
M73 Q20 S5
G1 X129.214 Y109.214 F10800
G1 Z2 F720
G1 E1 F2100
M204 S800
;TYPE:Perimeter
;WIDTH:0.5
G1 F900
G1 X120.786 Y109.214 E.45792
G1 X120.786 Y100.786 E.45792
M73 P20 R5
G1 X129.214 Y100.786 E.45792
G1 X129.214 Y109.154 E.45466
M204 S1000
G1 X129.7 Y109.7 F10800
M204 S800
;TYPE:External perimeter
;WIDTH:0.6
G1 F900
G1 X120.3 Y109.7 E.62797
G1 X120.3 Y100.3 E.62797
G1 X129.7 Y100.3 E.62797
G1 X129.7 Y109.64 E.62396
M73 P21 R5
M73 Q21 S5
M204 S1000
;WIPE_START
G1 F8640
G1 X129.7 Y109.7 E-.01385
G1 X125.429 Y109.7 E-.98615
;WIPE_END
G1 Z2.2 F720
G1 X126.322 Y108.822 F10800
G1 Z2 F720
G1 E1 F2100
;TYPE:Internal infill
;WIDTH:0.5
G1 F900
G1 X128.822 Y108.822 E.13583
G1 X121.178 Y101.178 E.58735
G1 X121.178 Y108.822 E.41532
G1 X128.822 Y101.178 E.58735
G1 X128.822 Y103.678 E.13583
;WIPE_START
G1 F8640
G1 X128.822 Y101.178 E-.57726
G1 X127.527 Y102.473 E-.42274
M73 Q22 S5
;WIPE_END
G1 Z2.2 F720
G1 X122.492 Y101.226 F10800
G1 Z2 F720
M73 P22 R5
G1 E1 F2100
;TYPE:Solid infill
;WIDTH:0.595703
G1 F900
G1 X122.559 Y101.226 E.00444
;WIDTH:0.610956
G1 X123.238 Y101.233 E.04629
;WIDTH:0.611603
G1 X124.673 Y101.22 E.09795
;WIDTH:0.583779
G1 X124.878 Y101.206 E.01331
;WIDTH:0.581021
G1 X125.161 Y101.218 E.01825
;WIDTH:0.606089
G1 X125.444 Y101.231 E.01914
;WIDTH:0.611454
G1 X126.923 Y101.228 E.10092
;WIDTH:0.600757
G1 X127.504 Y101.228 E.03887
G1 X127.483 Y101.32 E.00631
G1 X127.251 Y101.615 E.02511
G1 X127.036 Y101.74 E.01664
;WIDTH:0.611454
G1 X126.764 Y101.78 E.01876
G1 X125.442 Y101.772 E.09021
;WIDTH:0.606089
G1 X125.026 Y101.696 E.02857
;WIDTH:0.585975
G1 X124.755 Y101.738 E.01784
;WIDTH:0.611603
G1 X124.485 Y101.781 E.01866
G1 X123.237 Y101.78 E.08518
;WIDTH:0.610956
G1 X123.017 Y101.753 E.01511
;WIDTH:0.595703
G1 X122.757 Y101.621 E.01932
G1 X122.594 Y101.413 E.01751
;LAYER_CHANGE
;Z:2.3
;HEIGHT:0.3
;BEFORE_LAYER_CHANGE
G92 E0.0
;2.3


;WIPE_START
G1 F8640
G1 X122.757 Y101.621 E-.06102
G1 X123.017 Y101.753 E-.06733
G1 X123.237 Y101.78 E-.05118
G1 X124.485 Y101.781 E-.28817
G1 X124.755 Y101.738 E-.06313
G1 X125.026 Y101.696 E-.06332
G1 X125.442 Y101.772 E-.09765
G1 X126.764 Y101.78 E-.30526
G1 X126.777 Y101.778 E-.00294
;WIPE_END
G1 Z2.3 F720
;AFTER_LAYER_CHANGE
;2.3
G1 Z2.5
G1 X129.214 Y109.214 F10800
G1 Z2.3 F720
G1 E1 F2100
M204 S800
;TYPE:Perimeter
;WIDTH:0.5
G1 F900
G1 X120.786 Y109.214 E.45792
G1 X120.786 Y100.786 E.45792
G1 X129.214 Y100.786 E.45792
G1 X129.214 Y109.154 E.45466
M204 S1000
G1 X129.7 Y109.7 F10800
M204 S800
;TYPE:External perimeter
;WIDTH:0.6
G1 F900
M73 Q23 S5
G1 X120.3 Y109.7 E.62797
G1 X120.3 Y100.3 E.62797
